icons/svg/airplane.svg

<svg width="24" height="24" viewBox="0 0 24 24" fill="none" xmlns="http://www.w3.org/2000/svg">
<path d="M10.2381 4.51191C10.2381 3.53883 11.0269 2.75 12 2.75C12.9731 2.75 13.7619 3.53883 13.7619 4.51191L13.7619 8.90015L20.4946 12.4348C20.8237 12.6076 21.0298 12.9486 21.0298 13.3202V13.7515C21.0298 14.1275 20.6878 14.4109 20.3183 14.341L13.7619 13.1019V17.2084C13.7619 17.4297 13.8837 17.633 14.0788 17.7374L15.9407 18.7338C16.4284 18.9948 16.7329 19.5031 16.7329 20.0563V20.5029C16.7329 20.8865 16.378 21.1715 16.0034 21.0888L12 20.2039L7.99658 21.0888C7.62205 21.1715 7.26709 20.8865 7.26709 20.5029V20.0563C7.26709 19.5031 7.57159 18.9948 8.05935 18.7338L9.92119 17.7374C10.1163 17.633 10.2381 17.4297 10.2381 17.2084L10.2381 13.1019L3.68166 14.341C3.31217 14.4109 2.97024 14.1275 2.97024 13.7515V13.3202C2.97024 12.9486 3.17635 12.6076 3.5054 12.4348L10.2381 8.90015V4.51191Z" stroke="currentColor" stroke-width="1.5" stroke-linecap="round" stroke-linejoin="round"/>
</svg>

<svg xmlns="http://www.w3.org/2000/svg" width="24" height="24" fill="none" viewBox="0 0 24 24"><path stroke="currentColor" stroke-linecap="round" stroke-linejoin="round" stroke-width="1.5" d="M10.238 4.512a1.762 1.762 0 1 1 3.524 0V8.9l6.733 3.535a1 1 0 0 1 .535.885v.431a.6.6 0 0 1-.712.59l-6.556-1.24v4.107a.6.6 0 0 0 .317.53l1.862.996a1.5 1.5 0 0 1 .792 1.322v.447a.6.6 0 0 1-.73.586L12 20.204l-4.003.885a.6.6 0 0 1-.73-.586v-.447a1.5 1.5 0 0 1 .792-1.322l1.862-.997a.6.6 0 0 0 .317-.529v-4.106L3.682 14.34a.6.6 0 0 1-.712-.59v-.43a1 1 0 0 1 .535-.886L10.238 8.9z"/></svg>
